X: 11
T: The Tap Room
R: reel
M: 4/4
L: 1/8
K: Edor
|:B<e e>f e2 d>B|d2 f>d e>c d>A|B<e e>f e2 d>B|1A<B d>F E2-E2:|2A<B d>F E2 D>E||:F2 F>E D>E F<A|B2 B>A B>d e<f|d>c d>A B>e e<f|1d>c d>F E2 D>E:|2d>c d>F E2-E2|


Tune 711	Setting 13775

